X:1
T:Symphony No. 5 in C Minor
T:Third Movement
T:Ludwig van Beethoven
T:Arranged for piano by Franz Liszt
%%score { ( 1 4 ) | ( 2 3 5 ) }
L:1/8
Q:1/4=268
M:3/4
K:Eb
V:1 treble nm="Piano"
V:4 treble 
V:2 bass 
V:3 bass 
V:5 bass 
V:1
"^Allegro" z2 | z6 | z6 | z6 | z6 |[Q:1/4=228] G4 =B2 | c4!p! [=Bd]2 | %7
[Q:1/4=188]"_poco rit." .[df]4!pp! .[ce]2 |[Q:1/4=104] !fermata![=Bd]4[Q:1/4=268]"_a tempo" z2 | %9
 z6 | z6 | z6 | z6 | z6 | z6 |!pp![Q:1/4=228]"_un poco rit." g4 =b2 | c'4!p! d'2 | %17
[Q:1/4=188] .f'4!pp! .e'2 |[Q:1/4=104] !fermata!d'6 | %19
!ff![Q:1/4=268]"^a tempo" .[G,G]2 .[G,G]2 .[G,G]2 | !^![G,G]6 | [G,G]2 [G,G]2 [G,G]2 | !^![G,G]6 | %23
 .[G,G]2 .[G,G]2 .[G,G]2 | !^![G,G]6 | !>![GB]2 [FA]2 .[EG]2 | [B,F]6 | %27
 .[Bdfb]2 .[Bdfb]2 .[Bdfb]2 | !^![Be_gb]6 | .[Bdfb]2 .[Bdfb]2 .[Bdfb]2 | !^![Beb]6 | %31
 .[Bfb]2 .[Bfb]2 .[Bfb]2 | !^![B_gb]6 | [_db_d']2 [_ca_c']2 .[B_gb]2 | !^![Afa]6 | !^![B_gb]6 | %36
 !^![_Ge_g]6 | !^![B_gb]2 [Afa]2 [_Geg]2 | z2 z2!ff! !^!_c2 | B4 [e_g]2 | B4!ff! !^!_c2 | %41
 B4 [e_g]2 | [FBdf]4!ff! [_GBe_g]2 | [FBdf]4!ff! [_GBe_g]2 | [FBdf]6- | [FBdf]2 z2 z2 | z6 | z6 | %48
 z6 |[Q:1/4=228] F4 =A2 | B4!p! [=Ac]2 |[Q:1/4=188]"_poco rit." .[ce]4!pp! .[B_d]2 | %52
[Q:1/4=104] !fermata![C=Ac]4[Q:1/4=268]"^a tempo" z2 | z6 | z6 | z6 | z4 A2 | G4 =B,2 | C4 z2 | %59
 z6 |!pp! [Gg]6- | [Gg]6- | [Gg]6- | [Gg]6- | [Gg]6- | [Gg]6- | [Gg]6 | .[Gg]2"_cresc." z2 z2 | %68
 .[Gg]2 z2 z2 | .[Gg]2 z2 z2 | .[Gg]2 z2 z2 |!ff! .[Gdg]2 .[Gdg]2 .[Gdg]2 | !^![Gceg]6 | %73
 .[G=Bdg]2 .[GBdg]2 .[GBdg]2 | !^![Gcg]6 | .[Gdg]2 .[Gdg]2 .[Gdg]2 | !^![Geg]6 | %77
 !>![Bcgb]2 [Afa]2 .[Geg]2 | !^![FBdf]6 | .[c=egc']2 .[cc']2 .[cc']2 | !^![cfac']6 | %81
 .[c=egc']2 .[cc']2 .[cc']2 | !^![cfc']6 | .[c=egc']2 .[cgc']2 .[cgc']2 | !^![cac']6 | %85
 !^![ec'e']2 [_db_d']2 .[cac']2 | !^![Bgb]6 | !^![cac']6 | !^![Afa]6 | [cac']2 [Bgb]2 [Afa]2 | %90
 z2 z2!ff! !^!_d2 | c6 | c4- !^!_d2 | c6 | c6 | c6 |!f!"_dim." [G=eg]6- |!p! [Geg]2 z2 z2 | z6 | %99
 z6 | z6 | g4 [=B=b]2 | [cgc']4!p! [d=bd']2 | [fd'f']4!p! [ec'e']2 | [d=bd']2 z2 z2 | g4 [=B=b]2 | %106
 [cgc']4!mp! [ec'e']2 | [ge'g']4!p! [fd'f']2 | [ec'e']2 z2 z2 | c4 [ce]2 | [df]4 [eg]2 | %111
!p! .a'2 .a'2 .a'2 | .a'2 x4 | .a'2 .a'2 .a'2 | .a'2!p! x4 | .[df]2 .[df]2 .g2 | fe.d.c .[fc']2 | %117
 c=B.c.d .[gd']2 | dc.d.e .[c'f']2 | .f2 .f2 .g'2 | fe.d.c .[fc']2 | c=B.c.d .[gd']2 | %122
 dc.d.e .[c'f']2 |"_cresc." .f2 .f2 .[d'g']2 | fe.d.c .[ec']2 | z fga .[c'a']2 | c=B.=A.G .[Bg]2 | %127
 z G=A=B .[ec']2 | z cde .[ge']2 | z fga .[c'a']2 |!f! z abc'!8va(! .[e'c'']2 | %131
 .[c'e'c'']2 .[c'e'c'']2 .[=bd'=b']2 | .[c'e'c'']2!8va)! z2 z2 |!ff! .[Gdg]2 .[Gdg]2 .[Gdg]2 | %134
 !^![Geg]6 | .[FGdg]2 .[FGdg]2 .[FGdg]2 | !^![Gcg]6 |!p! .[CGBc]2 .[CGBc]2 .[CGBc]2 | %138
 .[CAc]2 z2 z2 | .[=B,DG]2 z2 z2 | .C2 z4 |:[K:C]!f![Q:1/4=248] z2 |[M:3/4] z6 | z6 | z6 | z6 | %146
 z6 | z2 z2!f! A2 | ^FGADEF | G^FG[A,A][B,B][^C^c] | !^![Dd]4 .[=C=c]2 | .[B,B]2 .[G,G]2 .[Ee]2 | %152
 .[Cc]2 .[A,A]2 .[Ff]2 | .[Dd]2 .[B,B]2 [cgc']2 | .[Bgb].[cc'].[dd'].[Bg].[ca].[db] | %155
 .[ec'].[db].[ec'].[fd']!ff!!8va(! [gg']2 | .[^f^f'].[gg'].[aa'].[dfd'].[ege'].[faf'] | %157
 .[gbg'].[^fa^f'].[gbg'].[ac'a'].[bd'b'].[c'e'c''] | %158
!<(! [d'^f'd''][d'f'd''][d'f'd''][d'f'd''][e'g'e''][f'a'^f'']!<)! | %159
 [g'b'g'']2 z [d'^f'd''][e'g'e''][f'a'^f'']!ff! | [g'b'g'']2 z [d'^f'd''][e'g'e''][f'a'^f''] |1 %161
 [g'b'g'']2 z2 :|2 [g'b'g'']2!8va)! z!ff! DE^F || .G2 z2 z2 | x6 | x6 | x6 | x6 | x6 | x6 | x6 | %171
 x3 z C2 | .B,.C.D.G,.A,.B, | .C.B,.C.D.E.F | !^!G4 .F2 | .E2 .C2 !^![Ac]2- | %176
 [Ac]2 .C2 !^![G_B]2- | [GB]2 .C2 !^![FA]2- | [FA]2 .C2 !^![EG-]2 | [CG]2 [A,F]2!f! [Ac]2 | %180
 .B.c.d.G.A.B | x4 g2 | .e.f.g.[Ec].[Fd].[Ge] | .f.e.f.g!ff!af | %184
 .[Bdb].[cec'][dfd'][GBg][Aca][Bdb] |!<(! .[cec'].[Bdb].[cec'].[dfd'].[ege'].[faf']!<)! | %186
 !^![gbg']!ff!d'.[gbg'].[gbg'] !^![fd'f']b | !^![ec'e']g !^![cec']g !^![ec'e']g | %188
 !^![gbg']!ff!d'.[gbg'].[gbg'] !^![fd'f']b | !^![ec'e']g !^![cec']g !^![ec'e']g | %190
 !^![gbg']d'.[gbg'].[gbg'] !^![fd'f']b | !^![ec'e']^g!^![cac']e!^![fc'f']a | %192
 !^![dbd']^f!^![Bgb]d!^![ebe']g | !^![cac']e!^![A=fa]c!^![dfd']a | %194
"_cresc." !^![Bfb]d!^![gd'g']b!^![dbd']f | !^![Bgb]d!8va(!!^![gd'g']b!^![bg'b']f' | %196
!fff! [c'e'c'']2 z .[gbg'].[ac'a'].[bd'b'] | [c'e'c'']2 z .[gbg'].[ac'a'].[bd'b'] | %198
 .[c'e'c'']2!8va)! z .G.A.B | .c2 z4 | z6 | z6 | z6 | z6 | z6 | z6 | z6 | x2 x z!p! C2 | %208
 .B,.C.D.G,.A,.B, | .C.B,.C.D.E.F | G4 F2 | .E2 .C2 [Ac]2- | [Ac]2 C2 [G_B]2- | %213
!p! [GB]2 C2 [FA]2- | [FA]2 C2 [EG]2 | [CF]2 [FA]2!pp! [Ac]2 | BcdGAB | cBcded | [_Be]6 | %219
 [Af]4 c'2 | bc'd'gab | c'bc'd'e'f' |!8va(! g6 | g6 | g6- | g6 | [gg']4 f'2 | d'2 b2!8va)! z2 | %228
 z2 z2 =B2 | G2 F2 D2 | .B,2 z2 z2 | ._A,2 z2 z2 | .G,2 z2 z2 | z6 | z6 | z6 | z6 | z6 |!pp! z6 || %239
[K:Eb] z6 |!pp! z6 | z6 | z6 |[Q:1/4=228] G4 =B2 | [EGc]2 z2 [=Bd]2 | %245
[Q:1/4=188]"_poco rit." .[df]2 z2 .[ce]2 |[Q:1/4=104] !fermata![=Bd]6[Q:1/4=268]"^a tempo" | z6 | %248
 z6 | z6 | z6 | z6 | z6 |[Q:1/4=228] .[DFG]2 z2 .[D=B]2 | .[Ec]2 z2[Q:1/4=188]"_poco rit." .[Dd]2 | %255
 .[Df]2 z2 .[Ce]2 |[Q:1/4=92] [=B,d]2 !fermata!z2 z2 |[Q:1/4=268]"^a tempo" .g2 .g2 .g2 | %258
 .g2 z2 z2 | .g2 .g2 .g2 | .g2 z2 z2 | .G2 .G2 .G2 | .[CEG]2 z2 z2 | .[GB]2 .[FA]2 .[EG]2 | %264
 [DF]2 z2 z2 | .c'2 .c'2 .c'2 | .c'2 z2 z2 | .c'2 .c'2 .c'2 | .c'2 z2 z2 | .c2 .c2 .c2 | %270
 .[Ac]2 z2 z2 | .[ce]2 .[B_d]2 .[Ac]2 | .[GB]2 z2 z2 | .[EAc]2 z2 z2 | .[_DFA]2 z2 z2 | %275
 .[Ac]2 .[GB]2 .[FA]2 | .[=EG]2 z2 ._D2 | .C2 z2 .[CFA]2 | .[C=EG]2 z2 ._D2 | .C2 z2 .[CFA]2 | %280
 .[C=EG]2 z2 .[CFA]2 | .[C=EG]2 z2 .[CFA]2 | .[C=EG]2[Q:1/4=104] z2[Q:1/4=268] z2 | z6 | z6 | z6 | %286
 z6 | .G2 z2 .[FG=B]2 | .[Gc]2 z2 .[G=Bd]2 | .g2 .g2 .g2 | .g2 z2 z2 | .G2 z2 .[F=B]2 | %292
 .[Gc]2 z2 .[Gce]2 | .g2 .g2 .g2 | .g2 z2 z2 | .c2 x2 .[ce]2 | .[df]2 z2 .[eg]2 | [fa]2 x2 [eg]2 | %298
 [eg]2 z2 .[df]2 | .[fa]2 x2 .[eg]2 | .[eg]2 .[df]2 .[df]2 | .[df]2 .f2 .g2 |{/f} .e2 .d2 .c2 | %303
 .=B2 .c2 .d2 | .c2 .e2 .f2 | .f2 .f2 .g2 |{/f} .e2 .d2 .c2 | .=B2 .c2 .d2 | .c2 .e2 .f2 | %309
 .f2 .f2 .g2 |{/f} .e2 .d2 .c2 | .f2 .g2 .a2 |{/c} .=B2 .=A2 .G2 | .G2 .=A2 .=B2 | .c2 .d2 .e2 | %315
 .f2 .g2 .a2 | .a2 .b2 .c'2 | .[ec']2 .[ec']2 .[d=b]2 | .[cc']2 z2 z2 | .[Gdg]2 .[dg]2 .[dg]2 | %320
 .[eg]2 z2 z2 | .[=Bg]2 .[Bg]2 .[Bg]2 | .[cg]2 x4 | .[CGBc]2 .[CGBc]2 .[CGBc]2 | .[CAc]2 z2 z2 | %325
 .[=B,DG]2 z2 z2 |[K:bass] [C,C]2 z2 z2 |] %327
V:2
!pp! G,,2 | C,2 E,2 G,2 | C4 E2 | D4!pp! ^F,2 | [G,,G,]6- |!pp! [G,,G,]6 | G,4 =B,2 | .D4 .C2 | %8
 !fermata!G,4!pp! G,,2 | C,2 E,2 G,2 | C4 E2 | D4 ^F,2 | G,4 ^C,2 | D,6- | D,4!p! [C,,C,]2 | %15
 [=B,,,=B,,]4 [G,,,G,,]2 | [C,,C,]4 [=B,,,=B,,]2 | [C,,C,]4 =A,2 | !fermata![G,,D,G,]6 | z6 | %20
!f! .[C,,G,,C,]2 z2 z2 | .[D,,G,,D,]2 z2 z2 | .[E,,G,,E,]2 z2 z2 | .[=B,,,G,,=B,,]2 z2 z2 | %24
!ff! .[C,,G,,C,]2 z2 .[_B,,,_B,,]2 | .[A,,,A,,]2 z2 .[A,,,A,,]2 | .[B,,,B,,]2 z2 z2 | [B,,,B,,]6 | %28
 !^![E,,E,]6 | !>![F,,F,]6 | !^![_G,,_G,]6 | [D,,D,]6 | [E,,E,]4 [_D,,_D,]2 | [_C,,_C,]4 [C,,C,]2 | %34
 !^![_D,,_D,]6 | !^![_G,,,_G,,]6 |!ped! !^![_C,,_C,]4 [B,,,B,,]2!ped-up! | %37
!ped! z2 [F,A,]2 [E,_G,]2!ped-up! | z2 z2 !^!_C2 | B,6 | z2 z2 !^!_C2 | B,6 | %42
 [B,,,B,,]4 [E,,B,,_G,]2 | [B,,,B,,]4 [E,,B,,_G,]2 |!ped!{/B,,,-} [B,,,B,,D,F,]6- | %45
!pp! [B,,,B,,D,F,]2!ped-up! [_D,,_D,]2 !>![F,,F,]2 | [B,,B,]4 [_D,_D]2 | [C,C]4 [=E,,=E,]2 | %48
 !>![F,,F,]6- | [F,,F,]6 | x4 =A,2 | .C4 .B,2 | !arpeggio!!fermata![F,=A,]4 F,,2 | B,,2 _D,2 F,2 | %54
 B,4 _D2 | C4 =E,2 | F,4 x2 | G,4 =B,,2 | C,4 E2 | D4 ^F,2 |!ped! [G,,G,]4 [^C,,^C,]2 | %61
 z2 =B,2 =E2!ped-up! |!ped! [G,,G,]4 [^C,,^C,]2 | z2 =B,2 =E2!ped-up! | %64
!ped! [G,,G,]2 [^C,,^C,]2 [D,,D,]2 | [G,,G,]2 [^C,,^C,]2 [D,,D,]2 | %66
 [G,,G,]2 [^C,,^C,]2 [D,,D,]2!ped-up! |!ped! [G,,G,]2 [D,,D,]2 [E,,E,]2!ped-up! | %68
!ped! [A,,A,]2 [=E,,=E,]2 !>![F,,F,]2!ped-up! |!ped! [=B,,=B,]2 !>![^F,,^F,]2 [G,,G,]2!ped-up! | %70
!ped! [C,C]2 [^G,,^G,]2 [=A,,=A,]2!ped-up! |!ped! z2 .[G,D]2 .[G,D]2!ped-up! | %72
!ped! !^![C,,C,]6!ped-up! |!ped! z2 .[G,=B,]2 .[G,B,]2!ped-up! |!ped! !^![E,,E,]6!ped-up! | %75
!ped! z2 .[G,D]2 .[G,D]2!ped-up! |!ped! [C,,C,]4 [_B,,,_B,,]2!ped-up! | %77
!ped! [A,,,A,,]4!ped-up! .[A,,,A,,]2 |!ped! !^![B,,,B,,]6!ped-up! |!ped! z2 .C2 .C2!ped-up! | %80
!ped! !^![F,,F,]6!ped-up! |!ped! z2 .C2 .C2!ped-up! |!ped! [A,,A,]6!ped-up! | %83
!ped! z2 .[G,C]2 .[G,C]2!ped-up! |!ped! !>!!^![F,,F,]4 [_E,,_E,]2!ped-up! | %85
!ped! z2 [B,_D]2!ped-up! .[_D,A,C]2 |!ped! !^![G,B,]6!ped-up! |!ped! !^![A,C]6!ped-up! | %88
!ped! !^![_D,,_D,]4 [C,,C,]2!ped-up! |!ped! z2 [G,B,]2 [F,A,]2!ped-up! | z2 z2 !^!_D2 | C6- | %92
 C4 !^!_D2 | C6 | [C,=E,G,]4 !>![F,,C,A,]2 | [C,=E,G,]4 !>![F,,C,A,]2 | %96
!ped!{/C,,-} [C,,C,=E,G,]6- | [C,,C,E,G,]2!ped-up! [_E,,_E,]2 [G,,G,]2 | [C,C]4 [E,E]2 | %99
 [D,D]4 [^F,,^F,]2 | [G,,G,-]6 | G4 F2 | E4 D2 | .G2 .G2 .[EG]2 |!ped! .G2 x4!ped-up! | G4 F2 | %106
 [EG]4 [CE]2 | .G2 .G2 .[=B,DG]2 |!ped! .[CEG]2 x4!ped-up! |[K:treble]!ped! A4!pp! G2!ped-up! | %110
!ped! [FA]4 [EG]2!ped-up! | f4 e2 | e4 d2 | f4 e2 | e2 d2[K:bass] .[DF]2 | z2 .[DF]2 [DG]2 | %116
!p! z2 .[EG]2 .[CF]2 | z2 .[DF]2 x2 | z2 .[CE]2 .[CF]2 | z2 .[=B,F]2 .[DG]2 | z2 .[EG]2 .[CF]2 | %121
 z2 .[DF]2 x2 | z2 .[CE]2 .[CF]2 | z2 .[=B,F]2 .[DG]2 | z2 .[EG]2 .[EG]2 | z2 .[CF]2 .[CF]2 | %126
 z2 .[=B,D]2 .[B,D]2 | z2 .[G,C]2 .[G,C]2 | z2 .[E,C]2 .[E,C]2 | z2 .[C,A,]2 .[C,A,]2 | %130
 z2 .[C,A,]2 .[C,=A,]2 | .[G,,E,G,]2 .[G,,C,E,]2 .[G,,=B,,D,]2 | .[C,,G,,C,]2 z2 z2 | %133
!ped! z2 .[_B,,D,G,]2 .[B,,D,G,]2!ped-up! |!ped! !^![C,,G,,C,]6!ped-up! | %135
!ped! z2 .[D,F,G,]2 .[D,F,G,]2!ped-up! |!ped! !^![E,,G,,E,]6!ped-up! | %137
 .[=E,,C,=E,]2 .[E,,C,E,]2 .[E,,C,E,]2 | .[F,,C,F,]2 z2 z2 | .[G,,G,]2 z2 z2 | .[C,,C,]2 z4 |: %141
[K:C] .[C,,C,]2 |[M:3/4] .[B,,,B,,].[C,,C,].[D,,D,].[G,,,G,,].[A,,,A,,].[B,,,B,,] | %143
 .[C,,C,].[B,,,B,,].[C,,C,].[D,,D,].[E,,E,].[F,,F,] | !^![G,,G,]4 .[F,,F,]2 | %145
 .[E,,E,]2 .[C,,C,]2 .[A,,A,]2 | .[F,,F,]2 .[D,,D,]2 .[B,,B,]2 | .[G,,G,]2 .[E,,E,]2 A,2 | %148
 ^F,G,A,D,E,F, | G,^F, G,2 .[E,,E,]2 | .[^F,,^F,]2 .[D,,D,]2 .[F,,F,]2 | %151
 .[G,,G,]2 .[E,,E,]2 .[^G,,^G,]2 | .[A,,A,]2 .[F,,F,]2 .[A,,A,]2 | .[B,,B,]2 .[G,,G,]2 .[E,E]2 | %154
!ped! .[F,F]2 .[G,,G,]2 .[F,F]2!ped-up! |!ped! .[E,E]2 .[C,C]2!ped-up! .[B,,B,]2 | %156
!ped! .[A,,A,]2 .[D,,D,]2 .[C,C]2!ped-up! |!ped! .[B,,B,]2 .[G,,G,]2!ped-up! .[E,,E,]2 | %158
 .[D,,D,].[^C,,^C,].[D,,D,].[=C,,=C,].[B,,,B,,].[A,,,A,,] | %159
 .[G,,,G,,].[B,,,B,,].[D,,D,].[C,,C,].[B,,,B,,].[A,,,A,,] | %160
 .[G,,,G,,].[B,,,B,,].[D,,D,].[C,,C,].[B,,,B,,].[A,,,A,,] |1 [G,,,G,,]2 z2 :|2 %162
 [G,,,G,,]2 z D,E,^F, || .G,2 z2!ff! G,2 | .=F,.G,.A,.D,.E,.F, | z2 z2 .G,2 | .F,.G,.A,.D,.E,.F, | %167
 z2 z2 .G,2 | .F,.G,.A,.D,.E,.F, | .B,,.C,.D,.G,,.A,,.B,, | .A,,.B,,.C,.B,,.C,.D, | %171
 .C,.D,.E, x x2 | !^![G,,G,]4 .[F,,F,]2 | .[E,,E,]2 .[C,,C,]2 .[B,,,B,,]2 | %174
 .[A,,,A,,]2 .[B,,,B,,]2 .[G,,,G,,]2 | .[C,,C,]2 .[E,,E,]2 .[F,,F,]2 | %176
 .[E,,E,].[F,,F,].[G,,G,].[C,,C,].[D,,D,].[E,,E,] | %177
 .[F,,F,].[E,,E,].[F,,F,].[G,,G,].[A,,A,].[_B,,_B,] | !^![C,C]4 .[_B,,_B,]2 | %179
 .[A,,A,]2 .[F,,F,]2 !>!F2- | F2 .[G,,G,]2 !>![G,DF]2- | [G,DF]2 [CE]2 !>![G_B]2- | %182
 [GB]2 C,2 !>![_B,C]2- | B,2 A,2 [F,A,F-]2 |!ped! [G,DF]2 [G,,G,]2 [G,-DF]2!ped-up! | %185
!ped! [G,CE]2 !>![G,,G,]2 [G,-CE]2!ped-up! |!ped! [G,B,DG]2 !>![G,,G,]2 [G,-DF]2!ped-up! | %187
!ped! [G,CE]2 !>![G,,G,]2 [G,-CE]2!ped-up! |!ped! !^![G,B,DG]2 !>![G,,,G,,]2 [G,DF]2!ped-up! | %189
!ped! [G,CE]2 !>![G,,,G,,]2 [G,CE]2!ped-up! |!ped! !^![G,B,DG]2 !>![G,,,G,,]2 [G,DF]2!ped-up! | %191
!ped! [G,CE]2 !>![G,,,G,,]2 [G,A,CF]2!ped-up! |!ped! [G,B,D]2 !>![G,,,G,,]2 [G,B,E]2!ped-up! | %193
!ped! [G,A,C]2 !>![G,,,G,,]2 [G,A,D]2!ped-up! |!ped! [G,B,]2 [G,,B,,G,]2 [G,,B,,D,]2 | %195
 [G,,B,,G,]2 !>![F,,F,]2 [D,,D,]2!ped-up! | %196
!ped! .[C,,C,].[E,,E,].[G,,G,].[F,,F,].[E,,E,].[D,,D,]!ped-up! | %197
!ped! .[C,,C,].[E,,E,].[G,,G,].[F,,F,].[E,,E,].[D,,D,]!ped-up! | .[C,,C,]2 z .G,.A,.B, | %199
 .C2 z2!f! .G,2 | .F,.G,.A,.D,.E,.F, | z2 z2"^dim." .G,2 | .F,.G,.A,.D,.E,.F, | z2 z2 .G,2 | %204
!p! .F,.G,.A,.D,.E,.F, | .B,,.C,.D,.G,,.A,,.B,, | .A,,.B,,.C,.B,,.C,.D, | .C,.D,.E, x2 x | %208
 [G,,G,]4 !>![F,,F,]2 | .[E,,E,]2 .[C,,C,]2 .[B,,,B,,]2 | .[A,,,A,,]2 .[B,,,B,,]2 .[G,,,G,,]2 | %211
 .[C,,C,]2 .[D,,D,]2 .[E,,E,]2 | .[E,,E,].[F,,F,].[G,,G,].[C,,C,].[D,,D,].[E,,E,] | %213
 .[F,,F,].[E,,E,].[F,,F,].[G,,G,].[A,,A,].[_B,,_B,] | [C,C]4 .[_B,,_B,]2 | %215
 .[A,,A,]2 .[F,,F,]2 [F,F]2 | [G,D]6 | [C,C]6 | [CG]6 | [F,F]4 [FA]2 | %220
[K:treble]!ped! [G,-F]6!ped-up! |!ped! [G,Ec]6!ped-up! |!ped! [G,Dc]6!ped-up! | %223
!ped! [G,Ec]6!ped-up! |!ped! [G,-DB]6!ped-up! |!ped! [G,Ec]6!ped-up! |!ped! [G,DB]2 z2 z2 | %227
 z2 z2 g2 | f2 d2 z2 | z6!ped-up! | z6 |[K:bass] z6 | z6 | .[^F,,^F,]2 z2 z2 | .[=F,,=F,]2 z2 z2 | %235
 .[_E,,_E,]2 z2 z2 | .[D,,D,]2 z2 .[_A,,_A,]2 | .[G,,G,]2 z2"^sempre" G,,2 | C,6- || %239
[K:Eb] C,2 E,2 G,2 | .C2 z2 .E2 | .D2 z2 .^F,2 | [G,,-G,]6 | G,4 =B,2 | [G,C]2 z2 [=B,D]2 | %245
 .[DF]2 z2 .[CE]2 | [=B,D]4 .G,,2 | .C,2 .E,2 .G,2 | .C2 z2 .E2 | .D2 z2 .^F,2 | .G,2 z2 .^C,2 | %251
 .D,2 z2 .^C,2 | .D,2 z2 .=C,2 | .=B,,2 z2 .[G,,G,]2 | .[C,G,]2 z2 .[=B,,G,]2 | %255
 .[C,G,]2 z2 .[^F,,=A,]2 | .[G,,D,]2 !fermata!z2 z2 |!ped!{/=B,-D-} .[B,DG]2!ped-up! z2 z2 | %258
!ped!{/C-E-} .[CEG]2!ped-up! z2 z2 |[K:treble]!ped!{/D-F-} .[DF=B]2!ped-up! z2 z2 | %260
!ped!{/E-G-} .[EGc]2!ped-up! z2 z2 |[K:bass]!ped!{/=B,,-D,-} .[B,,D,G,]2!ped-up! z2 z2 | %262
!ped!{/C,-E,-} .[C,E,G,]2!ped-up! z2 ._B,,2 |!ped!{/A,,-C,-F,-} .[A,,C,F,A,]2!ped-up! z2 .A,,2 | %264
!ped!{/B,,-D,-F,-} .[B,,D,F,B,]2!ped-up! z2 z2 |[K:treble]!ped!{/=E-G-} .[EGc]2!ped-up! z2 z2 | %266
!ped!{/F-A-} .[FAc]2!ped-up! z2 z2 |!ped!{/[=EG]-B} .[EGBc]2!ped-up! z2 z2 | %268
!ped!{/F-A-} .[FAc]2!ped-up! z2 z2 |[K:bass]!ped!{/=E,-G,-} .[E,G,C]2!ped-up! z2 z2 | %270
!ped!{/F,-A,-} .[F,A,C]2!ped-up! z2 _E,2 |!ped!{/_D,-F,-B,-} .[D,F,B,_D]2!ped-up! z2 .D,2 | %272
!ped!{/E,-G,-} .[E,G,B,]2!ped-up! z2 z2 |!ped!{/A,,E,A,-} .[A,C]2!ped-up! z2 z2 | %274
!ped!{/_D,-F,-} .[D,F,A,]2!ped-up! z2 z2 |!ped!{/B,,-_D,-G,} .[B,,D,B,]2!ped-up! z2 z2 | %276
!ped!{/C,-=E,-} .[C,E,G,]2!ped-up! z2 z2 | z2 z2 .[F,,C,]2 | %278
!ped!{/C,-=E,-} .[C,E,G,]2!ped-up! z2 z2 | z2 z2 .[F,,C,]2 | %280
!ped!{/C,-=E,} .[C,G,]2!ped-up! z2 .[F,,C,]2 |!ped!{/C,-=E,} .[C,G,]2!ped-up! z2 .[F,,C,]2 | %282
!ped!{/C,-=E,} .[C,G,]2!ped-up! z2 .G,,2 | .C,2 ._E,2 .G,2 | .C2 z2 .E2 | .D2 z2 .^F,2 | %286
 .G,2 z2 z2 |!ped!{/G,-=B,-} .[G,B,D]2!ped-up! z2 z2 |!ped! !arpeggio!.[G,CE]2!ped-up! z2 .G,2 | %289
!ped! !arpeggio!.[G,CE]2!ped-up! z2 .G,2 |!ped! !arpeggio!.[G,=B,D]2!ped-up! z2 .G,,2 | %291
!ped! !arpeggio!.[G,DF]2!ped-up! z2 .G,2 |!ped! !arpeggio!.[G,CE]2!ped-up! z2 .G,2 | %293
!ped! !arpeggio!.[G,=A,C]2!ped-up! z2!ped! !arpeggio!.[G,=B,D]2!ped-up! | %294
!ped! !arpeggio!.[G,CE]2!ped-up! z2 .G,,2 |!ped! !arpeggio!.[G,CE]2!ped-up! z2 .G,2 | %296
!ped! z2!ped-up! .[FA]2 .[EG]2 |!ped! z2!ped-up! z2 .[EG]2 |!ped! z2!ped-up! [EG]2 [FA]2 | %299
!ped! !arpeggio!.[G,DF]2!ped-up! z2 [EG]2 |!ped! !arpeggio!.[G,EG]2!ped-up! .[DF]2 .A,2 | %301
!ped! !arpeggio!.[G,DF]2!ped-up! z2 .=B,2 |!ped! !arpeggio!.[CEG]2!ped-up! z2 .A,2 | %303
!ped! !arpeggio!.[G,DF]2!ped-up! z2 .=B,,2 |!ped! !arpeggio!.[C,G,E]2!ped-up! z2 .A,2 | %305
!ped! !arpeggio!.[G,DF]2!ped-up! z2 .=B,2 |!ped! !arpeggio!.[CEG]2!ped-up! z2 .A,2 | %307
!ped! !arpeggio!.[G,DF]2!ped-up! z2 .=B,,2 |!ped! !arpeggio!.[C,G,E]2!ped-up! z2 .A,2 | %309
!ped! !arpeggio!.[G,DF]2!ped-up! z2 .=B,2 |!ped! !arpeggio!.[CEG]2!ped-up! z2 ._B,2 | %311
!ped! !arpeggio!.[A,CF]2!ped-up! z2 .F,2 |!ped! !arpeggio!.[G,=B,D]2!ped-up! z2 .F,2 | %313
!ped! !arpeggio!.[E,G,C]2!ped-up! z2 .D,2 |!ped! !arpeggio!.[C,E,G,C]2!ped-up! z2 .B,,2 | %315
!ped! !arpeggio!.[A,,F,C]2!ped-up! z2 .G,,2 |!ped! !arpeggio!.[F,,C,A,]2!ped-up! z2 .[^F,,^F,]2 | %317
 .[G,,G,]2 .[G,G]2 .[G,F]2 | .[CE]2 z2 z2 |!ped! !arpeggio!.[=B,,D,G,]2!ped-up! .B,,2 .B,,2 | %320
!ped! !arpeggio!.[C,E,G,]2!ped-up! z2 z2 |!ped! !arpeggio!.[D,F,=B,]2!ped-up! .D,2 .D,2 | %322
!ped! !arpeggio!.[E,G,C]2!ped-up! z2 z2 |!ped! !arpeggio!.[=E,,C,G,]2!ped-up! .E,,2 .E,,2 | %324
"_As everyone probably knows, this movement does not really\nend here but continues on for another 50 measures gradually\nbuilding up to the beginning (without pause) of the 4th movement.\nI uploaded that movement separately back in 2014 without the\n50 measure \"Introit\". Since it would be an awkward ending to put\nthem here, I thought about inserting them as an update at the\nbeginning of the 4th movement but that also sounded awkward.\nSo with apologies to Herr Beethoven, the 50 measure link between\nthe 2 movements has been omitted."!ped! !arpeggio!.[F,,C,A,]2!ped-up! z2 z2 | %325
!ped! !arpeggio!.[G,,=B,,G,]2!ped-up! z2 z2 |!8vb(! [C,,,C,,]2 z2 z2!8vb)! |] %327
V:3
 G,,,2 | C,,2 E,,2 G,,2 | C,4 E,2 | D,4 ^F,,2 | x6 | x6 | !arpeggio![C,,C,]6 | C,6 | G,,4 G,,,2 | %9
 C,,2 E,,2 G,,2 | C,4 E,2 | D,4 ^F,,2 | G,,4 ^C,,2 | D,,6- | D,,4 x2 | x6 | x6 | x4 ^F,,2 | x6 | %19
 x6 | x6 | x6 | x6 | x6 | x6 | x6 | x6 | x6 | x6 | x6 | x6 | x6 | x6 | x6 | x6 | x6 | x6 | %37
 [A,,,A,,]6 | [B,,,B,,]6- | [B,,,B,,]4 [E,,B,,_G,]2 | [B,,,B,,]6- | [B,,,B,,]4 [E,,B,,_G,]2 | x6 | %43
 x6 | x6 | x6 | x6 | x6 | x6 | x6 | [B,,,B,,-]6 | B,,6 | F,,2 z2 F,,,2 | B,,,2 _D,,2 !>!F,,2 | %54
 B,,4 _D,2 | C,4 =E,,2 | F,,4 A,2 | x6 | x4 E,2 | D,4 !>!^F,,2 | x6 | [D,,D,]6 | x6 | [D,,D,]6 | %64
 x6 | x6 | x6 | x6 | x6 | x6 | x6 | [D,,D,]6 | x6 | [D,,D,]6 | x6 | [=B,,,=B,,]6 | x6 | x6 | x6 | %79
 [C,,C,]6 | x6 | [G,,G,]6 | x6 | [=E,,=E,]6 | x6 | [_D,,_D,]6 | E,6 | !^![A,,E,]6 | x6 | %89
 [B,,,B,,]6 | [C,=E,G,]6- | [C,E,G,]4 !>![F,,C,A,]2 | [C,=E,G,]6- | [C,E,G,]4 z2 | x6 | x6 | x6 | %97
 x6 | x6 | x6 | x6 | G,6- | G,6- | G,6- | G,4 G,,2 | G,6- | G,6- | [G,-=A,C]6 | G,4 G,,2 | %109
[K:treble] x6 | x6 | z2 .[DF]2 .[EG]2 | z2 .[EG]2 [FA]2 | z2 .[DF]2 .[EG]2 | %114
 .[EG]2 .[FA]2[K:bass] A,2 | G,4 =B,2 | C4 A,2 | G,4 =B,,2 | C,4 A,2 | G,4 A,2 | C4 A,2 | %121
 G,4 =B,,2 | C,4 A,2 | G,4 A,2 | C4 _B,2 | A,4 F,2 | G,4 F,2 | E,4 D,2 | C,4 B,,2 | A,,4 G,,2 | %130
 !>!F,,4 !>!^F,,2 | x6 | x6 | !^![=B,,,G,,=B,,]6 | x6 | !^![D,,G,,D,]6 | x6 | x6 | x6 | x6 | x6 |: %141
[K:C] x2 |[M:3/4] x6 | x6 | x6 | x6 | x6 | x4 .C,2 | .A,,2 .D,2 .C,2 | .B,,2 .G,,2 x2 | x6 | x6 | %152
 x6 | x6 | x6 | x6 | x6 | x6 | x6 | x6 | x6 |1 x4 :|2 x6 || x2 x2 G,,2 | %164
 .=F,,.G,,.A,,.D,,.E,,.F,, | z2 z2 .G,,2 | .F,,.G,,.A,,.D,,.E,,.F,, | z2 z2 .G,,2 | %168
 .F,,.G,,.A,,.D,,.E,,.F,, | .B,,,.C,,.D,,.G,,,.A,,,.B,,, | .A,,,.B,,,.C,,.B,,,.C,,.D,, | %171
 .C,,.D,,.E,,.[D,,D,].[E,,E,].[F,,F,] | x6 | x6 | x6 | x6 | x6 | x6 | x6 | x6 | [G,D]4 x2 | %181
 C,4 x2 | C2 x4 | [F,C]4 x2 | x6 | x6 | x6 | x6 | x6 | x6 | x6 | x6 | x6 | x6 | x6 | x6 | x6 | x6 | %198
 x6 | z2 z2 .G,,2 | .F,,.G,,.A,,.D,,.E,,.F,, | z2 z2 .G,,2 | .F,,.G,,.A,,.D,,.E,,.F,, | %203
 z2 z2 .G,,2 | .F,,.G,,.A,,.D,,.E,,.F,, | .B,,,.C,,.D,,.G,,,.A,,,.B,,, | %206
 .A,,,.B,,,.C,,.B,,,.C,,.D,, | .C,,.D,,.E,,.[D,,D,].[E,,E,].[F,,F,] | x6 | x6 | x6 | x6 | x6 | x6 | %214
 x6 | x6 | x6 | x6 | x6 | x6 |[K:treble] x6 | x6 | x6 | x6 | x6 | x6 | x6 | x6 | x6 | x6 | x6 | %231
[K:bass] x6 | x6 | x6 | x6 | x6 | x6 | x4 G,,,2 | C,,6- ||[K:Eb] C,,2 E,,2 G,,2 | .C,2 z2 .E,2 | %241
 .D,2 z2 .^F,,2 | x6 | G,,6 | C,6- | C,6 | !fermata!G,4 x2 | x6 | x6 | x6 | x6 | x6 | x6 | x6 | %254
 x6 | x6 | x6 | x6 | x6 |[K:treble] x6 | x6 |[K:bass] x6 | x6 | x6 | x6 |[K:treble] x6 | x6 | x6 | %268
 x6 |[K:bass] x6 | x6 | x6 | x6 | x6 | x6 | x6 | x6 | x6 | x6 | x6 | x6 | x6 | x6 | x6 | x6 | x6 | %286
 x6 | x6 | x6 | x6 | x6 | x6 | x6 | x6 | x6 | x6 | !arpeggio![G,DF]2 x2 G,2 | %297
 !arpeggio![G,DF]2 x4 | !arpeggio![G,DF]2 x2 G,2 | x6 | x6 | x6 | x6 | x6 | x6 | x6 | x6 | x6 | %308
 x6 | x6 | x6 | x6 | x6 | x6 | x6 | x6 | x6 | x6 | x6 | x6 | x6 | x6 | x6 | x6 | x6 | x6 | %326
!8vb(! x6!8vb)! |] %327
V:4
 x2 | x6 | x6 | x6 | x6 | [DF]6 | [CE]4 D2 | F4 E2 | D4 x2 | x6 | x6 | x6 | x6 | x6 | x6 | %15
 [FGdf]6 | [ce]4 [dg]2 | [fd']4 [ec']2 | [d=b]6 | x6 | [CE]2 z2 z2 | [=B,F]2 z2 z2 | [CE]2 z2 z2 | %23
 .[DF]2 x4 | .[CE]2 z2 z2 | C2 x4 | [DF]2 z2 z2 | x6 | x6 | x6 | x6 | x6 | x6 | x6 | x6 | x6 | x6 | %37
 x6 | [Fdf]6- | [Fdf]4 _G2 | [Fdf]6- | [Fdf]4 _G2 | x6 | x6 | x6 | x6 | x6 | x6 | x6 | [CE]6 | %50
 [B,_D]4 C2 | E4 _D2 | x6 | x6 | x6 | x6 | x6 | x6 | x6 | x6 | x6 | z2 =B2 =e2 | [Ff]2 z2 z2 | %63
 z2 =B2 =e2 | [Ff]2 z2 z2 | [Ff]2 z2 z2 | [Ff]2 z2 z2 | x6 | x6 | x6 | x6 | x6 | x6 | x6 | x6 | %75
 x6 | x6 | x6 | x6 | x6 | x6 | x6 | x6 | x6 | x6 | x6 | x6 | x6 | x6 | x6 | [G=eg]6- | %91
 [Geg]4 [Afa]2 | [G=eg]6- | [Geg]4 [Afa]2 | [G=eg]4!ff! [Afa]2 | [G=eg]4!ff! [Afa]2 | x6 | x6 | %98
 x6 | x6 | x6 | .g2 .g2 .g2 | .g2 x4 | x6 | x6 | .g2 .g2 .g2 | x6 | x6 | x6 | x6 | x6 | a4 g2 | %112
 g4 f2 | a4 g2 | g2 f2 .[df]2 | x6 | x4 c2 | x4 d2 | x4 f2 | x4 [gd']2 | x4 c2 | x4 d2 | x4 f2 | %123
 x4 g2 | x4 c2 | x4 a2 | x4 G2 | x4 c2 | x4 e2 | x4 a2 | x4!8va(! c'2 | x6 | x2!8va)! x4 | x6 | %134
 x6 | x6 | x6 | x6 | x6 | x6 | x6 |:[K:C] x2 |[M:3/4] x6 | x6 | x6 | x6 | x6 | x2 x2 C2 | %148
 A,2 D2 C2 | B,2 x4 | x6 | x6 | x6 | x6 | x6 | x4!8va(! e'd' | c'2 x4 | x6 | x6 | x6 | x6 |1 x4 :|2 %162
 x2!8va)! x4 || x6 | x6 | x6 | x6 | x6 | x6 | x6 | x6 | x6 | x6 | x6 | x6 | x6 | x6 | x6 | x6 | %179
 x6 | x6 | .c.B.c.ded | x6 | A2 x2 [cc']2 | x6 | x6 | x6 | x6 | x6 | x6 | x6 | x6 | x6 | x6 | x6 | %195
 x2!8va(! x4 | x6 | x6 | x2!8va)! x4 | x6 | x6 | x6 | x6 | x6 | x6 | x6 | x6 | x6 | x6 | x6 | x6 | %211
 x6 | x6 | x6 | x6 | x6 | [FB]4 x2 | E4 g2 | efgcde | fefgaf | x6 | x6 |!8va(! g'4 f'2 | %223
 e'2 c'2 e'2 | g'4 f'2 | e'2 c'2 e'2 | x6 | x4!8va)! x2 | x6 | x6 | x6 | x6 | x6 | x6 | x6 | x6 | %236
 x6 | x6 | x6 ||[K:Eb] x6 | x6 | x6 | x6 | [DF]6 | x6 | x6 | x6 | x6 | x6 | x6 | x6 | x6 | x6 | %253
 x6 | x6 | x6 | x6 | x6 | x6 | x6 | x6 | [DF]2 x4 | x6 | C2 x4 | x6 | x6 | x6 | x6 | x6 | %269
 [GB]2 x4 | x6 | F2 x4 | x6 | x6 | x6 | x6 | x6 | x6 | x6 | x6 | x6 | x6 | x6 | x6 | x6 | x6 | x6 | %287
 x6 | x6 | [Gdf]2 z2 [Gce]2 | [G=Bd]2 x2 x2 | x6 | x6 | [Ge]2 z2 [Gdf]2 | [Gce]2 x2 x2 | %295
 z2 .A2 G2 | x6 | .A2 .A2 .A2 | .A2 x2 x2 | A2 A2 A2 | A2 x2 x2 | x2 d2 G2 | z2 E2 F2 | z2 D2 G2 | %304
 z2 G2 c2 | z2 =B2 d2 | z2 E2 F2 | z2 D2 G2 | z2 G2 c2 | z2 =B2 d2 | z2 E2 G2 | z2 A2 c2 | %312
 z2 =B,2 D2 | x2 G2 F2 | z2 E2 G2 | z2 A2 c2 | z2 c2 e2 | x6 | x6 | x6 | .G2 .G2 .G2 | G2 x4 | %322
 .G2 .G2 .G2 | x6 | x6 | x6 |[K:bass] x6 |] %327
V:5
 x2 | x6 | x6 | x6 | x6 | x6 | x6 | x6 | x6 | x6 | x6 | x6 | x6 | x6 | x6 | x6 | x6 | x6 | x6 | %19
 x6 | x6 | x6 | x6 | x6 | x6 | x6 | x6 | x6 | x6 | x6 | x6 | x6 | x6 | x6 | x6 | x6 | x6 | x6 | %38
 x6 | x6 | x6 | x6 | x6 | x6 | x6 | x6 | x6 | x6 | x6 | x6 | x6 | x6 | x6 | x6 | x6 | x6 | x6 | %57
 x6 | x6 | x6 | x6 | x6 | x6 | x6 | x6 | x6 | x6 | x6 | x6 | x6 | x6 | x6 | x6 | x6 | x6 | x6 | %76
 x6 | x6 | x6 | x6 | x6 | x6 | x6 | x6 | x6 | x6 | x6 | x6 | x6 | x6 | x6 | x6 | x6 | x6 | x6 | %95
 x6 | x6 | x6 | x6 | x6 | x6 | x6 | x6 | x6 | x6 | x6 | x6 | x6 | x6 |[K:treble] G,6- | G,6- | %111
 G,6- | G,6- | G,6- | G,6[K:bass] | x6 | x6 | x6 | x6 | x6 | x6 | x6 | x6 | x6 | x6 | x6 | x6 | %127
 x6 | x6 | x6 | x6 | x6 | x6 | x6 | x6 | x6 | x6 | x6 | x6 | x6 | x6 |:[K:C] x2 |[M:3/4] x6 | x6 | %144
 x6 | x6 | x6 | x6 | x6 | x6 | x6 | x6 | x6 | x6 | x6 | x6 | x6 | x6 | x6 | x6 | x6 |1 x4 :|2 x6 || %163
 x6 | x6 | x6 | x6 | x6 | x6 | x6 | x6 | x6 | x6 | x6 | x6 | x6 | x6 | x6 | x6 | x6 | x6 | x6 | %182
 x6 | x6 | x6 | x6 | x6 | x6 | x6 | x6 | x6 | x6 | x6 | x6 | x6 | x6 | x6 | x6 | x6 | x6 | x6 | %201
 x6 | x6 | x6 | x6 | x6 | x6 | x6 | x6 | x6 | x6 | x6 | x6 | x6 | x6 | x6 | x6 | x6 | x6 | x6 | %220
[K:treble] x6 | x6 | x6 | x6 | x6 | x6 | x6 | x6 | x6 | x6 | x6 |[K:bass] x6 | x6 | x6 | x6 | x6 | %236
 x6 | x6 | x6 ||[K:Eb] x6 | x6 | x6 | x6 | x6 | x6 | x6 | x6 | x6 | x6 | x6 | x6 | x6 | x6 | x6 | %254
 x6 | x6 | x6 | x6 | x6 |[K:treble] x6 | x6 |[K:bass] x6 | x6 | x6 | x6 |[K:treble] x6 | x6 | x6 | %268
 x6 |[K:bass] x6 | x6 | x6 | x6 | x6 | x6 | x6 | x6 | x6 | x6 | x6 | x6 | x6 | x6 | x6 | x6 | x6 | %286
 x6 | x6 | x6 | x6 | x6 | x6 | x6 | x6 | x6 | x6 | x6 | x6 | x6 | x6 | x6 | x6 | x6 | x6 | x6 | %305
 x6 | x6 | x6 | x6 | x6 | x6 | x6 | x6 | x6 | x6 | x6 | x6 | x6 | x6 | x6 | x6 | x6 | x6 | x6 | %324
 x6 | x6 |!8vb(! x6!8vb)! |] %327

